melody-of-light/img/category/category-1.svg

<svg width="20" height="18" viewBox="0 0 20 18" fill="none" xmlns="http://www.w3.org/2000/svg">
<path d="M1.5306 12.1866C1.87596 12.1866 2.15593 11.9067 2.15593 11.5613C2.15593 11.216 1.87596 10.2708 1.5306 10.2708C1.18524 10.2708 0.905273 11.216 0.905273 11.5613C0.905273 11.9067 1.18524 12.1866 1.5306 12.1866Z" fill="#93939F"/>
<path d="M20 13.4354H18.9116C18.9133 13.4194 18.9144 13.403 18.9144 13.3865V12.8303C18.9144 12.5846 18.7152 12.3854 18.4695 12.3854C18.2238 12.3854 18.0245 12.5846 18.0245 12.8303V13.3865C18.0245 13.403 18.0256 13.4194 18.0274 13.4354H16.9389C16.9389 14.1067 17.3712 14.6766 17.9723 14.883C17.8715 15.3848 17.4275 15.764 16.8964 15.764C16.2912 15.764 15.7989 15.2717 15.7989 14.6665L15.7989 12.771C15.7989 11.6752 14.9074 10.7836 13.8116 10.7836C13.5537 10.7836 13.3074 10.8336 13.0811 10.9233L10.4449 5.51597V2.28957C11.0731 2.09898 11.5305 1.51546 11.5305 0.824951H8.46942C8.46942 1.51546 8.9268 2.09898 9.55503 2.28957V5.51434L6.87751 10.907C6.66268 10.8274 6.43057 10.7837 6.1884 10.7837C5.09255 10.7837 4.20106 11.6752 4.20106 12.771V14.6665C4.20106 15.2717 3.70871 15.764 3.10353 15.764C2.57246 15.764 2.12839 15.3848 2.02759 14.883C2.6288 14.6766 3.06103 14.1067 3.06103 13.4355H1.97264C1.9744 13.4194 1.97547 13.4031 1.97547 13.3865V12.8303C1.97547 12.5846 1.77628 12.3854 1.53054 12.3854C1.2848 12.3854 1.08561 12.5846 1.08561 12.8303V13.3865C1.08561 13.4031 1.08667 13.4194 1.08843 13.4355H0C0 14.1429 0.4801 14.7379 1.13212 14.9133C1.25409 15.8931 2.09138 16.6539 3.10357 16.6539C4.19942 16.6539 5.09091 15.7624 5.09091 14.6666V12.7711C5.09091 12.1659 5.58326 11.6736 6.18844 11.6736C6.58035 11.6736 6.92472 11.8802 7.11891 12.1901H6.04014C6.04014 14.2266 7.57756 15.9037 9.55507 16.1249V16.7302C9.55507 16.9759 9.75426 17.1752 10 17.1752C10.2457 17.1752 10.4449 16.976 10.4449 16.7302V16.1249C12.4224 15.9037 13.9599 14.2266 13.9599 12.1901H12.8811C13.0753 11.8802 13.4197 11.6736 13.8116 11.6736C14.4168 11.6736 14.9091 12.1659 14.9091 12.7711L14.9091 14.6666C14.9091 15.7624 15.8006 16.6539 16.8964 16.6539C17.9086 16.6539 18.7459 15.8931 18.8679 14.9134C19.5199 14.7379 20 14.1429 20 13.4354ZM7.62587 11.4009L9.55507 7.51535V12.19H8.08894C7.99731 11.8909 7.8366 11.6218 7.62587 11.4009ZM10.4449 12.19V7.54667L12.3409 11.4357C12.1463 11.6499 11.9979 11.9066 11.9111 12.19H10.4449Z" fill="#93939F"/>
<path d="M18.4691 12.1866C18.8144 12.1866 19.0944 11.9067 19.0944 11.5613C19.0944 11.216 18.8144 10.2708 18.4691 10.2708C18.1237 10.2708 17.8438 11.216 17.8438 11.5613C17.8438 11.9067 18.1237 12.1866 18.4691 12.1866Z" fill="#93939F"/>
</svg>

<svg width="20" height="18" fill="none" xmlns="http://www.w3.org/2000/svg"><path d="M1.53 12.187c.346 0 .626-.28.626-.626 0-.345-.28-1.29-.625-1.29-.346 0-.626.945-.626 1.29 0 .346.28.626.626.626z" fill="#93939F"/><path d="M20 13.435h-1.088a.464.464 0 00.002-.049v-.556a.445.445 0 00-.89 0v.556c0 .017.002.033.003.05H16.94a1.53 1.53 0 001.033 1.447 1.099 1.099 0 01-2.173-.216V12.77a1.99 1.99 0 00-2.718-1.848l-2.636-5.407V2.29A1.531 1.531 0 0011.53.825H8.47c0 .69.457 1.274 1.085 1.465v3.224l-2.677 5.393a1.99 1.99 0 00-2.676 1.864v1.895a1.099 1.099 0 01-2.174.217 1.53 1.53 0 001.033-1.447H1.973a.45.45 0 00.002-.05v-.556a.445.445 0 00-.89 0v.556a.45.45 0 00.003.05H0c0 .707.48 1.302 1.132 1.477.122.98.96 1.74 1.972 1.74a1.99 1.99 0 001.987-1.986V12.77a1.099 1.099 0 012.028-.58H6.04a3.96 3.96 0 003.515 3.934v.605a.445.445 0 00.89 0v-.605a3.96 3.96 0 003.515-3.935h-1.08a1.098 1.098 0 012.028.581v1.896a1.99 1.99 0 001.987 1.987 1.99 1.99 0 001.972-1.74A1.531 1.531 0 0020 13.434zM7.626 11.401l1.93-3.886v4.675H8.088a1.988 1.988 0 00-.463-.79zm2.819.789V7.547l1.896 3.889c-.195.214-.343.47-.43.754h-1.466z" fill="#93939F"/><path d="M18.47 12.187c.344 0 .624-.28.624-.626 0-.345-.28-1.29-.625-1.29s-.625.945-.625 1.29c0 .346.28.626.625.626z" fill="#93939F"/></svg>
